X:1
T:Title
%%score { ( 1 3 ) | 2 }
L:1/8
M:4/4
K:Bb
V:1 treble nm="Grand Piano"
V:3 treble 
V:2 bass 
V:1
 z4 z2[Q:1/4=100] F>F | B2 B,2 D2 F2 | B4 B2 B>c | d2 d2 e2 d2 |[M:3/4] [CGc]6 |[M:1/4] G>G | %6
[M:4/4] c2 C2 E2 G2 | c4 c2 c>d | e2 e2 f2 e2 |[M:3/4] d6 |[M:1/4] [DB]>[Ec] |[M:4/4] z4 z2 [FB]2 | %12
 [EB]2 z2 F,2 c>d | e2 G2 A2 G2 | [DG]2 [DF]4 [DF]>[DF] | [EG]2 [EG]2 [EA]2 [EA]>[EA] | %16
[M:9/8] B>BB c _d2- dd>d |[M:4/4] d2 B2 F2 d2 |[M:7/8] c- c3 [DB]3 |] %19
V:2
 z4 z2 F,>F, | B,2 B,,2 D,2 F,2 | B,4 B,2[K:treble] [B,D]>[B,E] | %3
 [B,F]2 [A,B,F]2 [G,B,E]2[K:bass] [F,B,F]2 |[M:3/4] E,6 |[M:1/4] G,>G, |[M:4/4] C2 C,2 E,2 G,2 | %7
 C4 C2 [CE]>[CF] | [CG]2 [B,CG]2 [A,CF]2 [F,A,F]2 |[M:3/4] [B,F]6 | %10
[M:1/4][K:bass] [B,,B,]>[B,,B,] |[M:4/4] [B,,B,]2 [B,,B,]2 [B,,B,]2 [D,B,]2 | %12
 [C,F,]2 [C,F,]2 z2 [F,A,F]>[F,B,F] | [F,CG]2 [F,CE]2 [F,CE]2 [F,A,E]2 | %14
 [B,,B,]2 [B,,B,]4 [B,,B,]>[B,,B,] | [E,B,]2 [E,B,]2 [C,C]2 [C,C]>[C,C] | %16
[M:9/8] [G,B,E]>[G,B,E][G,B,E] [G,B,E] [^F,B,=E]2- [F,B,E][F,B,E]>[F,B,E] | %17
[M:4/4] [F,B,F]2 [F,B,D]2 [F,B,D]2 [F,B,F]2 |[M:7/8] [F,A,E]- [F,A,E]3 [B,,B,]3 |] %19
V:3
 x8 | x8 | x8 | x8 |[M:3/4] x6 |[M:1/4] x2 |[M:4/4] x8 | x8 | x8 |[M:3/4] x6 |[M:1/4] x2 | %11
[M:4/4] [Fd]2 [DF]2 [DF]2 z z/ [D,F,]/ | z2 [EA]4 z2 | x8 | x8 | x8 |[M:9/8] x9 |[M:4/4] x8 | %18
[M:7/8] x7 |] %19

